ui/StatusQ/src/assets/img/icons/gas.svg

<svg fill="none" height="24" viewBox="0 0 24 24" width="24" xmlns="http://www.w3.org/2000/svg"><path clip-rule="evenodd" d="m8.75 3c-2.07107 0-3.75 1.67893-3.75 3.75v12c0 .9665.7835 1.75 1.75 1.75h6c.9665 0 1.75-.7835 1.75-1.75v-5.75h.25c.6904 0 1.25.5596 1.25 1.25v3.5c0 1.5188 1.2312 2.75 2.75 2.75s2.75-1.2312 2.75-2.75v-8.6387c0-1.08136-.4668-2.11008-1.2806-2.82216l-2.9755-2.60357c-.3117-.27276-.7856-.24118-1.0583.07055-.2728.31173-.2412.78555.0705 1.05831l1.4879 1.30191c-1.0112.32041-1.744 1.26645-1.744 2.38366 0 1.38071 1.1193 2.5 2.5 2.5.5628 0 1.0822-.186 1.5-.4998v7.2498c0 .6904-.5596 1.25-1.25 1.25s-1.25-.5596-1.25-1.25v-3.5c0-1.5188-1.2312-2.75-2.75-2.75h-.25v-4.75c0-2.07107-1.6789-3.75-3.75-3.75zm-2.25 3.75c0-1.24264 1.00736-2.25 2.25-2.25h2c1.2426 0 2.25 1.00736 2.25 2.25v2.5h-6.5zm0 4v8c0 .1381.11193.25.25.25h6c.1381 0 .25-.1119.25-.25v-8zm12-3.25c-.5523 0-1 .44772-1 1s.4477 1 1 1 1-.44772 1-1-.4477-1-1-1z" fill="#4360df" fill-rule="evenodd"/></svg>

<svg width="24" height="24" viewBox="0 0 24 24" fill="none" xmlns="http://www.w3.org/2000/svg">
<path fill-rule="evenodd" clip-rule="evenodd" d="M8.75 3C6.67893 3 5 4.67893 5 6.75V18.75C5 19.7165 5.7835 20.5 6.75 20.5H12.75C13.7165 20.5 14.5 19.7165 14.5 18.75V13H14.75C15.4404 13 16 13.5596 16 14.25V17.75C16 19.2688 17.2312 20.5 18.75 20.5C20.2688 20.5 21.5 19.2688 21.5 17.75V9.1113C21.5 8.02994 21.0332 7.00122 20.2194 6.28914L17.2439 3.68557C16.9322 3.41281 16.4583 3.44439 16.1856 3.75612C15.9128 4.06785 15.9444 4.54167 16.2561 4.81443L17.744 6.11634C16.7328 6.43675 16 7.38279 16 8.5C16 9.88071 17.1193 11 18.5 11C19.0628 11 19.5822 10.814 20 10.5002V17.75C20 18.4404 19.4404 19 18.75 19C18.0596 19 17.5 18.4404 17.5 17.75V14.25C17.5 12.7312 16.2688 11.5 14.75 11.5H14.5V6.75C14.5 4.67893 12.8211 3 10.75 3H8.75ZM6.5 6.75C6.5 5.50736 7.50736 4.5 8.75 4.5H10.75C11.9926 4.5 13 5.50736 13 6.75V9.25L6.5 9.25V6.75ZM6.5 10.75V18.75C6.5 18.8881 6.61193 19 6.75 19H12.75C12.8881 19 13 18.8881 13 18.75V10.75L6.5 10.75ZM18.5 7.5C17.9477 7.5 17.5 7.94772 17.5 8.5C17.5 9.05228 17.9477 9.5 18.5 9.5C19.0523 9.5 19.5 9.05228 19.5 8.5C19.5 7.94772 19.0523 7.5 18.5 7.5Z" fill="#4360DF"/>
</svg>
